static/fa/svgs/solid/plane-arrival.svg

<svg xmlns="http://www.w3.org/2000/svg" viewBox="0 0 640 512"><!--! Font Awesome Free 6.1.1 by @fontawesome - https://fontawesome.com License - https://fontawesome.com/license/free (Icons: CC BY 4.0, Fonts: SIL OFL 1.1, Code: MIT License) Copyright 2022 Fonticons, Inc.--><path d="m.253 166.9-.21-98.91C.02 57.74 9.508 50.11 19.51 52.34l35.56 7.9a31.987 31.987 0 0 1 23.02 20L95.1 127.1l128.2 38.5-41.5-145.2C178.9 10.18 186.6.001 197.2.001h40.1c11.5 0 22.2 6.235 27.9 16.309l109 193.89 107.3 31.6c15.9 4.7 30.7 12.5 43.7 22.9l34.4 27.5c24.1 19.2 18.1 57.3-10.7 68.3-41.2 15.6-86.2 18-128.8 6.9l-298.4-77.6c-11.1-2.9-21.2-8.7-29.3-16.9L9.536 189.4c-5.93-6-9.265-14.1-9.283-22.5zM608 448c17.7 0 32 14.3 32 32s-14.3 32-32 32H32c-17.67 0-32-14.3-32-32s14.33-32 32-32h576zm-416-80c0 17.7-14.3 32-32 32s-32-14.3-32-32 14.3-32 32-32 32 14.3 32 32zm32 16c0-17.7 14.3-32 32-32s32 14.3 32 32-14.3 32-32 32-32-14.3-32-32z"/></svg>

<svg xmlns="http://www.w3.org/2000/svg" viewBox="0 0 640 512"><!--! Font Awesome Free 6.1.1 by @fontawesome - https://fontawesome.com License - https://fontawesome.com/license/free (Icons: CC BY 4.0, Fonts: SIL OFL 1.1, Code: MIT License) Copyright 2022 Fonticons, Inc. --><path d="M.2528 166.9L.0426 67.99C.0208 57.74 9.508 50.11 19.51 52.34L55.07 60.24C65.63 62.58 74.29 70.11 78.09 80.24L95.1 127.1L223.3 165.6L181.8 20.4C178.9 10.18 186.6 .001 197.2 .001H237.3C248.8 .001 259.5 6.236 265.2 16.31L374.2 210.2L481.5 241.8C497.4 246.5 512.2 254.3 525.2 264.7L559.6 292.2C583.7 311.4 577.7 349.5 548.9 360.5C507.7 376.1 462.7 378.5 420.1 367.4L121.7 289.8C110.6 286.9 100.5 281.1 92.4 272.9L9.536 189.4C3.606 183.4 .2707 175.3 .2528 166.9V166.9zM608 448C625.7 448 640 462.3 640 480C640 497.7 625.7 512 608 512H32C14.33 512 0 497.7 0 480C0 462.3 14.33 448 32 448H608zM192 368C192 385.7 177.7 400 160 400C142.3 400 128 385.7 128 368C128 350.3 142.3 336 160 336C177.7 336 192 350.3 192 368zM224 384C224 366.3 238.3 352 256 352C273.7 352 288 366.3 288 384C288 401.7 273.7 416 256 416C238.3 416 224 401.7 224 384z"/></svg>
